X: 3
T: Ceremonial Song
C: Teton Sioux band 1911-1914
N: Derived from sioux003.krn
O: South Dakota, U.S.A.
N: Teton Sioux Music by Frances Densmore, 1918
Z: transcribed to **kern format by Craig Sapp
L: 1/8
M: 3/4
Q: 1/4=58
K: Eb clef=bass
%%linebreak <none>
C3/ C/ [I:setbarnb 1]| 
(C< G,) G, G, (G,/ F,) E,/ | 
G, G, G, G, (G,/ F, E,/) | 
E, E, E, E, E,3/ C,/ | 
E, E, E, E, E, E, | 
G, G, E, C, E,3/ E,/ | 
E, E, E, E, E,3/ C,/ | 
C,4 :|]  



